X:34
T:Cheshire Round
S:John Moore's Book 1
Z:Transcribed by David Jacobs  April 2021
M:3/2
L:1/8
K:D
%%VWML: Moore1-4493-p21-0
F:http://www.vwml.org/record/Moore1/4493/p21
f2(ef) gfed (ef)a2|b2 e4 d2c2A2|f2 (ef)gfed (fg)a2|A2d4A2F2D2:|
|: G2(AB) =cBAG F4|E2 e4d2c2 (BA)|B2 (AB)=cBAG F3F|D2d4A2F2D2:|]

